%
(Header)
(Generated by gcodetools from Inkscape.)
(Using default header. To add your own header create file "header" in the output dir.)
M3
(Header end.)
G21 (All units in mm)

(Start cutting path id: path3692)
(Change tool to Default tool)

G00 Z5.000000
G00 X339.254114 Y1.995623

G01 Z-0.125000 F100.0(Penetrate)
G01 X388.859355 Y1.995623 Z-0.125000 F400.000000
G00 Z5.000000

(End cutting path id: path3692)


(Start cutting path id: path3690)
(Change tool to Default tool)

G00 Z5.000000
G00 X-4.276312 Y1.995623

G01 Z-0.125000 F100.0(Penetrate)
G01 X51.315750 Y1.995623 Z-0.125000 F400.000000
G00 Z5.000000

(End cutting path id: path3690)


(Start cutting path id: path3671-8)
(Change tool to Default tool)

G00 Z5.000000
G00 X-0.219318 Y89.910518

G01 Z-0.125000 F100.0(Penetrate)
G01 X392.197338 Y89.910518 Z-0.125000 F400.000000
G00 Z5.000000

(End cutting path id: path3671-8)


(Start cutting path id: path3671)
(Change tool to Default tool)

G00 Z5.000000
G00 X-0.178180 Y78.011832

G01 Z-0.125000 F100.0(Penetrate)
G01 X392.238486 Y78.011832 Z-0.125000 F400.000000
G00 Z5.000000

(End cutting path id: path3671)


(Start cutting path id: path3660)
(Change tool to Default tool)

G00 Z5.000000
G00 X41.103968 Y-0.458158

G01 Z-0.125000 F100.0(Penetrate)
G01 X41.103968 Y15.392210 Z-0.125000 F400.000000
G01 X349.892735 Y15.392210 Z-0.125000
G01 X349.892735 Y-0.458158 Z-0.125000
G00 Z5.000000

(End cutting path id: path3660)


(Start cutting path id: rect3336)
(Change tool to Default tool)

G00 Z5.000000
G00 X11.134504 Y266.357501

G01 Z-0.125000 F100.0(Penetrate)
G01 X380.865495 Y266.357501 Z-0.125000 F400.000000
G02 X388.638574 Y263.138574 Z-0.125000 I0.000000 J-10.994695
G02 X391.857515 Y255.369263 Z-0.125000 I-7.766624 J-7.769310
G01 X391.857515 Y11.130733 Z-0.125000
G02 X388.638577 Y3.361426 Z-0.125000 I-10.985565 J0.000000
G02 X380.865495 Y0.142495 Z-0.125000 I-7.773082 J7.775764
G01 X11.134504 Y0.142495 Z-0.125000
G02 X3.361429 Y3.361430 Z-0.125000 I0.000000 J10.994668
G02 X0.142500 Y11.130733 Z-0.125000 I7.766647 J7.769303
G01 X0.142500 Y255.369263 Z-0.125000
G02 X3.361432 Y263.138570 Z-0.125000 I10.985576 J0.000000
G02 X11.134504 Y266.357501 Z-0.125000 I7.773071 J-7.775737
G01 X11.134504 Y266.357501 Z-0.125000
G00 Z5.000000

(End cutting path id: rect3336)


(Footer)
M5
G00 X0.0000 Y0.0000
M2
(Using default footer. To add your own footer create file "footer" in the output dir.)
(end)
%