%
(Header)
(Generated by gcodetools from Inkscape.)
(Using default header. To add your own header create file "header" in the output dir.)
M3
(Header end.)
G21 (All units in mm)

(Start cutting path id: path3348-5-9-8-3)
(Change tool to Default tool)

G00 Z5.000000
G00 X164.452990 Y80.537317

G01 Z-0.125000 F100.0(Penetrate)
G02 X164.736542 Y81.227725 Z-0.125000 I0.975178 J0.002923 F400.000000
G02 X165.425242 Y81.515426 Z-0.125000 I0.691645 J-0.687504
G02 X166.115664 Y81.231893 Z-0.125000 I0.002946 J-0.975205
G02 X166.403385 Y80.543218 Z-0.125000 I-0.687456 J-0.691653
G02 X166.330297 Y80.169792 Z-0.125000 I-0.975175 J-0.003002
G02 X166.119863 Y79.852762 Z-0.125000 I-0.902097 J0.370428
G02 X165.804122 Y79.640398 Z-0.125000 I-0.691670 J0.687465
G02 X165.431144 Y79.565030 Z-0.125000 I-0.375933 J0.899841
G02 X165.057713 Y79.638136 Z-0.125000 I-0.002957 J0.975208
G02 X164.740689 Y79.848585 Z-0.125000 I0.370469 J0.902091
G02 X164.528337 Y80.164338 Z-0.125000 I0.687487 J0.691635
G02 X164.452990 Y80.537317 Z-0.125000 I0.899828 J0.375879
G01 X164.452990 Y80.537317 Z-0.125000
G00 Z5.000000

(End cutting path id: path3348-5-9-8-3)


(Start cutting path id: path3348-5-9-8)
(Change tool to Default tool)

G00 Z5.000000
G00 X176.452935 Y80.573622

G01 Z-0.125000 F100.0(Penetrate)
G02 X176.736486 Y81.264029 Z-0.125000 I0.975178 J0.002923 F400.000000
G02 X177.425185 Y81.551731 Z-0.125000 I0.691646 J-0.687503
G02 X178.115608 Y81.268199 Z-0.125000 I0.002949 J-0.975205
G02 X178.403330 Y80.579523 Z-0.125000 I-0.687455 J-0.691654
G02 X178.330242 Y80.206097 Z-0.125000 I-0.975175 J-0.003002
G02 X178.119807 Y79.889066 Z-0.125000 I-0.902097 J0.370429
G02 X177.804065 Y79.676702 Z-0.125000 I-0.691669 J0.687466
G02 X177.431086 Y79.601336 Z-0.125000 I-0.375931 J0.899842
G02 X177.057656 Y79.674442 Z-0.125000 I-0.002954 J0.975208
G02 X176.740633 Y79.884891 Z-0.125000 I0.370471 J0.902091
G02 X176.528282 Y80.200643 Z-0.125000 I0.687488 J0.691634
G02 X176.452935 Y80.573622 Z-0.125000 I0.899828 J0.375878
G01 X176.452935 Y80.573622 Z-0.125000
G00 Z5.000000

(End cutting path id: path3348-5-9-8)


(Start cutting path id: path3348-5-9)
(Change tool to Default tool)

G00 Z5.000000
G00 X122.597390 Y73.683023

G01 Z-0.125000 F100.0(Penetrate)
G02 X122.485120 Y73.118472 Z-0.125000 I-1.475165 J-0.000077 F400.000000
G02 X122.165342 Y72.639862 Z-0.125000 I-1.362913 J0.564480
G02 X121.686745 Y72.320063 Z-0.125000 I-1.043146 J1.043102
G02 X121.122192 Y72.207762 Z-0.125000 I-0.564556 J1.362919
G02 X120.557637 Y72.320060 Z-0.125000 I-0.000005 J1.475220
G02 X120.079037 Y72.639859 Z-0.125000 I0.564543 J1.362904
G02 X119.759257 Y73.118471 Z-0.125000 I1.043132 J1.043094
G02 X119.646986 Y73.683023 Z-0.125000 I1.362894 J0.564475
G02 X120.079074 Y74.726111 Z-0.125000 I1.475170 J-0.000036
G02 X121.122192 Y75.158170 Z-0.125000 I1.043113 J-1.043155
G02 X122.165305 Y74.726108 Z-0.125000 I-0.000003 J-1.475215
G02 X122.597390 Y73.683023 Z-0.125000 I-1.043085 J-1.043121
G01 X122.597390 Y73.683023 Z-0.125000
G00 Z5.000000

(End cutting path id: path3348-5-9)


(Start cutting path id: path3348-5)
(Change tool to Default tool)

G00 Z5.000000
G00 X14.597384 Y73.683023

G01 Z-0.125000 F100.0(Penetrate)
G02 X14.485113 Y73.118473 Z-0.125000 I-1.475161 J-0.000077 F400.000000
G02 X14.165335 Y72.639863 Z-0.125000 I-1.362912 J0.564482
G02 X13.686737 Y72.320063 Z-0.125000 I-1.043148 J1.043106
G02 X13.122183 Y72.207762 Z-0.125000 I-0.564560 J1.362928
G02 X12.557628 Y72.320062 Z-0.125000 I0.000002 J1.475229
G02 X12.079029 Y72.639862 Z-0.125000 I0.564548 J1.362907
G02 X11.759250 Y73.118472 Z-0.125000 I1.043133 J1.043093
G02 X11.646979 Y73.683023 Z-0.125000 I1.362890 J0.564473
G02 X12.079065 Y74.726107 Z-0.125000 I1.475167 J-0.000036
G02 X13.122183 Y75.158170 Z-0.125000 I1.043120 J-1.043160
G02 X14.165298 Y74.726106 Z-0.125000 I-0.000005 J-1.475223
G02 X14.597384 Y73.683023 Z-0.125000 I-1.043082 J-1.043119
G01 X14.597384 Y73.683023 Z-0.125000
G00 Z5.000000

(End cutting path id: path3348-5)


(Start cutting path id: rect3423)
(Change tool to Default tool)

G00 Z5.000000
G00 X5.704914 Y96.460902

G01 Z-0.125000 F100.0(Penetrate)
G01 X126.539459 Y96.460902 Z-0.125000 F400.000000
G02 X128.840455 Y95.401206 Z-0.125000 I-0.000000 J-3.028010
G02 X129.900122 Y92.532270 Z-0.125000 I-3.353840 J-2.868937
G01 X129.900122 Y69.833641 Z-0.125000
G02 X128.840402 Y66.964666 Z-0.125000 I-4.413441 J-0.000000
G02 X126.539459 Y65.905029 Z-0.125000 I-2.300942 J1.968365
G01 X5.704914 Y65.905029 Z-0.125000
G02 X3.403969 Y66.964665 Z-0.125000 I0.000000 J3.028009
G02 X2.344246 Y69.833641 Z-0.125000 I3.353713 J2.868976
G01 X2.344246 Y92.532270 Z-0.125000
G02 X3.403915 Y95.401207 Z-0.125000 I4.413501 J0.000000
G02 X5.704914 Y96.460902 Z-0.125000 I2.300999 J-1.968322
G01 X5.704914 Y96.460902 Z-0.125000
G00 Z5.000000

(End cutting path id: rect3423)


(Start cutting path id: path3348-0-7-2)
(Change tool to Default tool)

G00 Z5.000000
G00 X133.412132 Y42.914721

G01 Z-0.125000 F100.0(Penetrate)
G02 X133.299858 Y42.350173 Z-0.125000 I-1.475164 J-0.000067 F400.000000
G02 X132.980079 Y41.871566 Z-0.125000 I-1.362911 J0.564489
G02 X132.501481 Y41.551769 Z-0.125000 I-1.043144 J1.043111
G02 X131.936928 Y41.439469 Z-0.125000 I-0.564555 J1.362928
G02 X131.372376 Y41.551769 Z-0.125000 I0.000006 J1.475228
G02 X130.893780 Y41.871567 Z-0.125000 I0.564549 J1.362907
G02 X130.574001 Y42.350174 Z-0.125000 I1.043132 J1.043096
G02 X130.461727 Y42.914721 Z-0.125000 I1.362891 J0.564480
G02 X130.893811 Y43.957809 Z-0.125000 I1.475170 J-0.000032
G02 X131.936928 Y44.389874 Z-0.125000 I1.043122 J-1.043156
G02 X132.980047 Y43.957810 Z-0.125000 I-0.000003 J-1.475222
G02 X133.412132 Y42.914721 Z-0.125000 I-1.043085 J-1.043120
G01 X133.412132 Y42.914721 Z-0.125000
G00 Z5.000000

(End cutting path id: path3348-0-7-2)


(Start cutting path id: path3348-0-7)
(Change tool to Default tool)

G00 Z5.000000
G00 X133.412132 Y14.914591

G01 Z-0.125000 F100.0(Penetrate)
G02 X132.980037 Y13.871509 Z-0.125000 I-1.475185 J0.000055 F400.000000
G02 X131.936928 Y13.439452 Z-0.125000 I-1.043112 J1.043158
G02 X130.893821 Y13.871510 Z-0.125000 I0.000006 J1.475215
G02 X130.461727 Y14.914591 Z-0.125000 I1.043091 J1.043135
G02 X130.574001 Y15.479141 Z-0.125000 I1.475181 J0.000066
G02 X130.893780 Y15.957751 Z-0.125000 I1.362920 J-0.564489
G02 X131.372377 Y16.277550 Z-0.125000 I1.043149 J-1.043107
G02 X131.936928 Y16.389851 Z-0.125000 I0.564557 J-1.362918
G02 X132.501480 Y16.277551 Z-0.125000 I-0.000003 J-1.475219
G02 X132.980078 Y15.957752 Z-0.125000 I-0.564550 J-1.362907
G02 X133.299858 Y15.479142 Z-0.125000 I-1.043140 J-1.043100
G02 X133.412132 Y14.914591 Z-0.125000 I-1.362908 J-0.564485
G01 X133.412132 Y14.914591 Z-0.125000
G00 Z5.000000

(End cutting path id: path3348-0-7)


(Start cutting path id: path3348-0)
(Change tool to Default tool)

G00 Z5.000000
G00 X28.412124 Y14.914591

G01 Z-0.125000 F100.0(Penetrate)
G02 X27.980031 Y13.871510 Z-0.125000 I-1.475189 J0.000055 F400.000000
G02 X26.936929 Y13.439452 Z-0.125000 I-1.043108 J1.043148
G02 X25.893817 Y13.871505 Z-0.125000 I-0.000008 J1.475206
G02 X25.461720 Y14.914591 Z-0.125000 I1.043091 J1.043141
G02 X25.573994 Y15.479145 Z-0.125000 I1.475187 J0.000066
G02 X25.893775 Y15.957756 Z-0.125000 I1.362919 J-0.564491
G02 X26.372376 Y16.277554 Z-0.125000 I1.043142 J-1.043106
G02 X26.936929 Y16.389851 Z-0.125000 I0.564545 J-1.362912
G02 X27.501478 Y16.277550 Z-0.125000 I-0.000006 J-1.475208
G02 X27.980073 Y15.957751 Z-0.125000 I-0.564552 J-1.362901
G02 X28.299851 Y15.479142 Z-0.125000 I-1.043143 J-1.043097
G02 X28.412124 Y14.914591 Z-0.125000 I-1.362913 J-0.564484
G01 X28.412124 Y14.914591 Z-0.125000
G00 Z5.000000

(End cutting path id: path3348-0)


(Start cutting path id: path3348)
(Change tool to Default tool)

G00 Z5.000000
G00 X22.412125 Y42.914696

G01 Z-0.125000 F100.0(Penetrate)
G02 X22.299852 Y42.350148 Z-0.125000 I-1.475169 J-0.000067 F400.000000
G02 X21.980073 Y41.871540 Z-0.125000 I-1.362911 J0.564487
G02 X21.501477 Y41.551743 Z-0.125000 I-1.043143 J1.043105
G02 X20.936927 Y41.439444 Z-0.125000 I-0.564553 J1.362918
G02 X20.372374 Y41.551741 Z-0.125000 I-0.000006 J1.475217
G02 X19.893775 Y41.871537 Z-0.125000 I0.564541 J1.362905
G02 X19.573994 Y42.350146 Z-0.125000 I1.043130 J1.043098
G02 X19.461720 Y42.914696 Z-0.125000 I1.362895 J0.564483
G02 X19.893807 Y43.957788 Z-0.125000 I1.475173 J-0.000032
G02 X20.936927 Y44.389849 Z-0.125000 I1.043114 J-1.043152
G02 X21.980041 Y43.957785 Z-0.125000 I-0.000003 J-1.475213
G02 X22.412125 Y42.914696 Z-0.125000 I-1.043089 J-1.043121
G01 X22.412125 Y42.914696 Z-0.125000
G00 Z5.000000

(End cutting path id: path3348)


(Start cutting path id: path6459)
(Change tool to Default tool)

G00 Z5.000000
G00 X5.700981 Y63.414672

G01 Z-0.125000 F100.0(Penetrate)
G03 X2.946810 Y62.277233 Z-0.125000 I-0.000000 J-3.903164 F400.000000
G03 X1.808352 Y59.536868 Z-0.125000 I2.728917 J-2.740365
G01 X1.808352 Y5.673853 Z-0.125000
G03 X2.946580 Y2.932295 Z-0.125000 I3.870802 J-0.000000
G03 X5.700981 Y1.794032 Z-0.125000 I2.754401 J2.763457
G01 X143.570137 Y1.794032 Z-0.125000
G03 X146.323312 Y2.932510 Z-0.125000 I0.000000 J3.898233
G03 X147.460731 Y5.673853 Z-0.125000 I-2.734807 J2.741344
G01 X147.460731 Y59.536868 Z-0.125000
G03 X146.323082 Y62.277018 Z-0.125000 I-3.868796 J-0.000000
G03 X143.570137 Y63.414672 Z-0.125000 I-2.752945 J-2.762020
G01 X5.700981 Y63.414672 Z-0.125000
G01 X5.700981 Y63.414672 Z-0.125000
G00 Z5.000000

(End cutting path id: path6459)


(Start cutting path id: rect3489)
(Change tool to Default tool)

G00 Z5.000000
G00 X178.205670 Y11.718150

G01 Z-0.125000 F100.0(Penetrate)
G01 X154.070392 Y11.645139 Z-0.125000 F400.000000
G02 X151.733463 Y12.595170 Z-0.125000 I-0.010290 J3.323947
G02 X150.769397 Y14.880239 Z-0.125000 I2.249088 J2.294788
G01 X150.559949 Y84.107578 Z-0.125000
G02 X151.510167 Y86.398374 Z-0.125000 I3.212980 J0.009735
G02 X153.841310 Y87.362596 Z-0.125000 I2.341198 J-2.360132
G01 X177.976587 Y87.435618 Z-0.125000
G02 X180.313519 Y86.485512 Z-0.125000 I0.010034 J-3.324393
G02 X181.277586 Y84.200514 Z-0.125000 I-2.248917 J-2.294718
G01 X181.487034 Y14.973174 Z-0.125000
G02 X180.536804 Y12.682371 Z-0.125000 I-3.212967 J-0.009735
G02 X178.205670 Y11.718150 Z-0.125000 I-2.341219 J2.360187
G01 X178.205670 Y11.718150 Z-0.125000
G00 Z5.000000

(End cutting path id: rect3489)


(Footer)
M5
G00 X0.0000 Y0.0000
M2
(Using default footer. To add your own footer create file "footer" in the output dir.)
(end)
%